
$: stack( n("<- <1 3 7, 8 [3 6]> 9>/2")
  .scale("F:Minor")
  .sound("square")
  .velocity(1)
  .delay(0.2),

  n("<-1 -5, -2 [- -4]> -3")
  .scale("F:Minor")
  .sound("square")
  .velocity(0.5)
  .delay(0.2)
)
